X:1
T:To thee, O Lord my God
T:Benedetto Marcello ( 1686 - 1739 )
T:Psalm 25 v 1 Paraphrase by: Garth & Avison (1757)
T:Copyright  © 2004 The Choral Public Domain Library.   http://www.cpdl.org Edtion may be freely distributed, duplicated, performed or recorded.
T:To thee, O Lord my God
T:Copyright  © 2004 The Choral Public Domain Library.   http://www.cpdl.org Edtion may be freely distributed, duplicated, performed or recorded.
T:Copyright  © 2004 The Choral Public Domain Library.   http://www.cpdl.org Edtion may be freely distributed, duplicated, performed or recorded.
T:Copyright  © 2004 The Choral Public Domain Library.   http://www.cpdl.org Edtion may be freely distributed, duplicated, performed or recorded.
T:Copyright  © 2004 The Choral Public Domain Library.   http://www.cpdl.org Edtion may be freely distributed, duplicated, performed or recorded.
C:Benedetto Marcello
C:( 1686 - 1739 )
Z:Psalm 25 v 1
Z:Paraphrase by:
Z:Garth & Avison (1757)
Z:Copyright  © 2004 The Choral Public Domain Library.   http://www.cpdl.org
Z:Edtion may be freely distributed, duplicated, performed or recorded.
%%score [ 1 2 ] { ( 3 4 6 7 ) | 5 }
L:1/8
M:4/4
K:Bb
V:1 treble-8 transpose=-12 nm="T." snm="T."
V:2 bass nm="B." snm="B."
V:3 treble nm="." snm="Hpsd."
V:4 treble 
V:6 treble 
V:7 treble 
V:5 bass 
V:1
"^Grave" G2 d2- dde=B | c4 z (c/4d/4e/ d)c | B4 B3 B | A2 d2 B4 | z (B/4c/4d/) cB AF B2- | %5
w: To thee, _ O Lord my|God, will _ _ _ I|lift up my|soul to thee,|O * * Lord my God, will I|
 B2 A2 d3 d | g3 c AF B2- | B2 A2 BF d2- | d(c/B/) e2- ec f2- | f(e/d/) e2- ed c2- | %10
w: _ lift up my|soul, will I lift up|_ my soul, to thee,|_ O _ Lord _ my God,|_ will _ I _ lift up|
 c2 (=Bc/d/) c4 | z8 | z8 | z2 G2 A2 dA | BGBc d4- | d2 c4 (BA) | Bc d4 c2 | d2 z e/e/ ccdd | %18
w: _ my _ _ soul.|||My God, I have|put my trust in thee,|_ I have _|put my trust in|thee: let me ne- ver be co-|
 (=B3/2c/4d/4) cc/c/ =AAdd | GGcc F(G/A/) B2- | BA B2- Bc A2 | B2 z d/d/ ccff | BBee A(B/c/) d2- | %23
w: nfou- * * ded, let me ne- ver be co-|\-~fou- nded, let me ne- ver, _ ne-|* ver be _ co- nfou-|\-~nded, let me ne- ver be co-|nfou- nded, let me ne- ver, _ ne-|
 d^c d2- d=e c2 | d2 z G/G/ FFBB | =EEAA D(E/^F/) G2- | G^F G3 A F2 | G2 BB _A2 G2 | GB G4 ^F2 | %29
w: * ver be _ co- nfou-|nded, let me ne- ver be co-|\-~nfou- nded, let me ne- ver, _ ne-|* ver be co- nfou-|\-~nded, let me ne- ver,|ne- ver be co-|
 G4 !fermata!G4 |] %30
w: nfou- nded.|
V:2
 z2 D,2 G,4- | G,G,A,=E, ^F,4 | z (^F,/4G,/4A,/ G,)=F, E,D, ^C,2 | D,4 z2 G,2 | %4
w: To thee,|_ O Lord my God,|will _ _ _ I lift up my|soul, to|
 E,3 (E,/4F,/4G,/) F,E,D,B,, | C6 B,2 | E,4- E,E,D,G, | C,3 C, B,,3 B,, | G,3 (F,/E,/) _A,3 F, | %9
w: thee, O _ _ Lord, will I lift|up my|soul, _ will I Lift|up my soul to|thee, O _ Lord my|
 G,2 CC, (_A,3 ^F,) | G,2 G,2 C,4 | z4 z2 C,2 | D,2 G,D, E,C,E,F, | G,6 ^F,2 | G,4 z2 D,2 | %15
w: God, will I lift _|up my soul.|My|God, I have put my trust in|thee, in|thee, my|
 =E,2 A,E, ^F,D,E,F, | G,3 (=F, _E,4) | D,D,/D,/ G,2 _A,A,/A,/ F,F, | %18
w: God, I have put my trust in|thee, in _|thee: let me ne- ver, let me ne- ver|
 G,G, (=E,3/2F,/4G,/4) F,F,/F,/ F,2- | F,E,E,E, E,(D,/C,/) D,(C,/B,,/) | G,3 G, F,4 | %21
w: be co- nfou- * * nded, let me ne-|* ver, let me ne- ver, _ ne- ver _|be co- nfou-|
 B,,F,/F,/ B,2- B,A, A,(G,/F,/) | G,G, z G,/G,/ G,(F,/=E,/) F,(E,/D,/) | B,3 B, A,4 | %24
w: \-~nded, let me ne- * ver be co- *|nfou- nded, let me ne- ver, _ ne- ver _|be co- nfou-|
 D,D,/D,/ _E,2- E,D, D,(C,/B,,/) | C,C, z C,/C,/ C,(B,,/A,,/) B,,(A,,/G,,/) | E,3 E, D,4 | %27
w: nded, let me ne- * ver be co- *|\-~nfou- nded, let me ne- ver, _ ne- ver _|be co- nfou-|
 G,,2 z G,/G,/ (C,D,) E,2 | ^C,4 D,4 | G,,4 !fermata!G,,4 |] %30
w: \-~nded, let me ne- * ver|be co-|nfou- nded.|
V:3
 G8- | G4 ^F2 D2- | D2 G4 G2 | ^FG A2- AG/F/ G2- | G3 B A2 B2- | B2 A2 F4 | G4 F2 B2- | %7
 B2 A2 B2 [DF]2- | [DF]2 E[EG]- [EG]2 F-[F_A] | [=B,FG]2 [CEG]2 c4- | c=B/A/ B2 cd e2 | %11
 de/f/ ed e2 G2 | F2 DG EFG=A | BABc d3 c | Bc d4 d2- | d2 c4 BA | B2 A2- ABAG | %17
 [D^F]2 z [EBe] [E_Ac] z z [DAd] | [DG=B] z z [CGc] [C=A]2 z [DFd] | [CG]2 z [CEc] [B,F]2 Bc | %20
 dB/c/ de f c2 d/e/ | [Bd]2 z [FBd] [Fc]2 z [FAf] | [DGB]2 z [EGe] [DA]2 d=e | %23
 fd/=e/ fg a e2 ^f/g/ | ^fddc [=Fc]B z [GB] | BA z A AG z G/A/ | BG/A/ Bc d A2 B/c/ | %27
 [GB]2[K:bass] [B,D]2 [_A,C]2 [G,B,]2 | B,4 =A,4 | !fermata!G,8 |] %30
V:4
 [B,D]6 ([G,E-]2 | E2) (C2 C2) x2 | B,8 | A,3 D- D3 D | C6 D2 | C6 B,D- | DE/D/ C2- [CE]2 [B,D]2 | %7
 z GF_E D2 x2 | x8 | x4 E4 | D4 E2 c2- | c3 =B c2 E2 | D4 C2 E2 | D2 G2- GA/G/ ^F2 | %14
 [GB]4 A2 [DG]2 | [=EA]4 [D^F]4 | D6 C2 | x8 | x4 GF x2 | F_E x2 ED [DB]2- | [DB]2 B2- BA/G/ A2 | %21
 x4 BA x2 | x4 GF [Fd]2- | [Fd]2 d2- d^c/=B/ c2 | d[D^F] G2 ED B,2 | =E2 D4 [B,D]2- | %26
 [B,D]2 G2- G^F/=E/ F2 | x2[K:bass] x6 | G,6 ^F,2 | G,8 |] %30
V:5
 G,,8 | A,,4 D,4 | G,,4 C,2 ^C,2 | D,2 ^F,,2 G,,2 G,2 | E,3 E, F,E,D,B,, | F,2 F,,2 B,,4 | %6
 E,2 E,,2 F,,2 G,,2 | =E,,2 F,,2"^" B,,4 | G,3 F,/E,/ _A,3 F, | G,2 CC, _A,3 ^F, | G,4 C,2 C_A, | %11
 F,2 G,G,, C,,2 C,2- | C,2 =B,,2 C,2 C2 | B,2 E,2 D,4 | G,,2 G,2 F,2 B,,2 | A,,4 D,4 | G,3 F, E,4 | %17
 D,2 G,2 _A,2 F,2 | G,2 =E,2 F,2 =B,,2 | C,2 A,,2 B,,3 B,, | G,,3 G, F,4 | B,,3 B,, F,4- | %22
 F,2 E,C, D,3 D, | B,,3 B, A,4 | D,2 _E,2 B,,2 G,,2 | A,,2 ^F,,2 G,,3 G,, | E,3 E, D,4 | %27
 G,,2 G,2 C,D, E,2 | ^C,3 C, D,4 | !fermata!G,,8 |] %30
V:6
 x8 | G,2 CB, A,4 | x8 | x8 | x8 | x8 | x8 | C4 B,2 B,2 | B,4 C4 | x8 | x2 GF E2 E2 | %11
 _A2 G2 G2 E2 | x8 | x8 | x8 | x8 | x8 | x8 | x8 | x8 | x8 | x8 | x8 | x8 | x8 | C4- CB, D2 | x8 | %27
 x2[K:bass] x6 | x8 | x8 |] %30
V:7
 x8 | x8 | x8 | x8 | x4 F4- | F4 x4 | x8 | x8 | x8 | x8 | x8 | x8 | x8 | x8 | x8 | x8 | x8 | x8 | %18
 x8 | x8 | x8 | x8 | x8 | x8 | x8 | x8 | x8 | x2[K:bass] x6 | x8 | x8 |] %30

